!!!OTL: 2016. Sehnsucht nach Jesu.
!!!ARE: Europa, Mitteleuropa, Deutschland, Schlesien
!!!SCT: E2016
!!!TXL: @@DE
!!!YEM: Copyright 1995, estate of Helmut Schaffrath.
**kern	**text
*ICvox	*
*M3/4	*
*k[b-]	*
*F:	*
!LO:TX:a:t=	!
!LO:TX:a:t=Mel. aus Schleſien. Allgemein beliebtes Lied.	!
{8f	Wo
8a	iſt
=1	=1
4cc	Je-
4ff	-ſus,
8ee	mein
8dd	Ver-
=2	=2
4cc	-lan-
4a}	-gen,
{8cc	mein
8a	Ge-
=3	=3
4g	-lieb-
4b-	-ter
8a	und
8g	mein
=4	=4
2a}	Freund?
{8f	Ach
8a	wo
=5	=5
4cc	iſt
4cc	er
16ddL	hin-
16ccJ	.
16b-L	-ge-
16aJ	.
=6	=6
4g	-gan-
4b-}	-gen?
{8a	Wo
8g	mag
=7	=7
4.f	er
8a	ʒu
8g	fin-
8e	-den
=8	=8
2f}	ſein?
==	==
!!!AGN: geistlich, Gebet, Jesus - Lied
!!!ONB: ESAC (Essen Associative Code) Database: ERK3
!!!AMT: simple triple
!!!AIN: vox
!!!EED: Helmut Schaffrath
!!!EEV: 1.0
!!!GTL: Geistliche Lieder. 3. Jesuslieder (Anbetung des Heilandes.)
!!!URL-scan: https://rosdok.uni-rostock.de/mcrviewer/recordIdentifier/rosdok_ppn745177999/iview2/phys_0724.iview2?x=188.96815741118007&y=1977.0374568100087&scale=0.7014306698522891&rotation=0&layout=singlePageLayout
!!!ENC: Anna Maria Matuszewska
!!!EEV: 2025/10/01
*-	*-
